X: 5968
T: Campbells Are Coming, The
R: jig
M: 6/8
K: Dmajor
E|:FAB AFD|FGF ~F2E|FAB AFD|EFE ~E2D|
FAB AFD|FGF dAd|dBd AFD|1 FGF ~F2:|2 FGF ~F2A||
|:d2d dAF|A3 A2d|d2d dAF|B3 B3|
ABc dcB|ABc dAd|dBd AFD|1 FGF ~F2A:|FGF ~F2E||

